talent/images/icons/quotes.svg

<svg width="66" height="50" viewBox="0 0 66 50" fill="none" xmlns="http://www.w3.org/2000/svg">
<path fill-rule="evenodd" clip-rule="evenodd" d="M27.2127 0.168945L29.4448 10.4324C21.3977 11.4221 17.4386 15.1334 17.4386 21.4433H28.0791V49.8928H0V27.2574C0 7.59234 11.1409 0.905191 27.2127 0.168945ZM63.3452 0.168945L65.5773 10.4324C57.5359 11.4221 53.5768 15.1334 53.5766 21.4433H64.2105V49.8927H36.1325V27.2572C36.1325 7.59215 47.2733 0.905191 63.3452 0.168945Z" fill="#F3F6FA"/>
</svg>

<svg width="66" height="50" fill="none" xmlns="http://www.w3.org/2000/svg"><path fill-rule="evenodd" clip-rule="evenodd" d="M27.213.169l2.232 10.263c-8.047.99-12.006 4.701-12.006 11.011h10.64v28.45H0V27.257C0 7.592 11.14.905 27.213.17zm36.132 0l2.232 10.263c-8.041.99-12 4.701-12 11.011H64.21v28.45H36.133V27.257C36.133 7.592 47.273.905 63.344.17z" fill="#F3F6FA"/></svg>
